logo/noon-logo.svg

<svg fill="none" height="190" viewBox="0 0 190 190" width="190" xmlns="http://www.w3.org/2000/svg"><rect fill="#969bcf" height="190" rx="95" width="190"/><g fill="#fff"><path d="m115.027 71.0818c10.763 1.4036 19.893 11.0751 19.893 23.9182 0 13.906-10.704 24.094-22.594 24.094s-22.594-10.188-22.594-24.094c0-3.2441.5825-6.2859 1.6268-9.0432-2.9249-5.6764-8.4782-9.2568-14.2626-9.5186-2.7309 5.5732-4.2704 11.8809-4.2704 18.5618 0 22.644 17.6848 41 39.5002 41 21.815 0 39.5-18.356 39.5-41 0-22.6437-17.685-41-39.5-41-4.051 0-7.96.633-11.639 1.8088 5.852 3.8807 10.766 9.1207 14.34 15.273z"/><path d="m108.61 71.2393c-3.675-5.3553-8.559-9.7546-14.2391-12.7685-5.68 3.0139-10.5643 7.4132-14.2394 12.7685 5.6423 1.0172 10.7602 4.3092 14.2394 9.1186 3.4791-4.8094 8.5971-8.1014 14.2391-9.1186z"/><path d="m80.1315 118.761c3.6751 5.355 8.5595 9.754 14.2395 12.768 5.68-3.014 10.564-7.413 14.239-12.768-5.642-1.018-10.7599-4.31-14.2391-9.119-3.4791 4.809-8.5971 8.102-14.2394 9.119z"/><path d="m97.3831 104.043c1.0443-2.757 1.6268-5.7989 1.6268-9.043 0-13.9061-10.704-24.0939-22.5939-24.0939s-22.5939 10.1878-22.5939 24.0939c0 12.843 9.1301 22.515 19.8923 23.918 3.5742 6.152 8.4883 11.393 14.3403 15.273-3.6793 1.176-7.5878 1.809-11.6387 1.809-21.8152 0-39.5-18.356-39.5-41 0-22.6437 17.6848-41 39.5-41s39.5 18.3563 39.5 41c0 6.681-1.539 12.989-4.27 18.562-5.785-.262-11.338-3.842-14.2629-9.519z"/></g></svg>

<svg width="190" height="190" viewBox="0 0 190 190" fill="none" xmlns="http://www.w3.org/2000/svg">
<rect width="190" height="190" rx="95" fill="#969BCF"/>
<path d="M115.027 71.0818C125.79 72.4854 134.92 82.1569 134.92 95C134.92 108.906 124.216 119.094 112.326 119.094C100.436 119.094 89.732 108.906 89.732 95C89.732 91.7559 90.3145 88.7141 91.3588 85.9568C88.4339 80.2804 82.8806 76.7 77.0962 76.4382C74.3653 82.0114 72.8258 88.3191 72.8258 95C72.8258 117.644 90.5106 136 112.326 136C134.141 136 151.826 117.644 151.826 95C151.826 72.3563 134.141 54 112.326 54C108.275 54 104.366 54.633 100.687 55.8088C106.539 59.6895 111.453 64.9295 115.027 71.0818Z" fill="white"/>
<path d="M108.61 71.2393C104.935 65.884 100.051 61.4847 94.3709 58.4708C88.6909 61.4847 83.8066 65.884 80.1315 71.2393C85.7738 72.2565 90.8917 75.5485 94.3709 80.3579C97.85 75.5485 102.968 72.2565 108.61 71.2393Z" fill="white"/>
<path d="M80.1315 118.761C83.8066 124.116 88.691 128.515 94.371 131.529C100.051 128.515 104.935 124.116 108.61 118.761C102.968 117.743 97.8501 114.451 94.3709 109.642C90.8918 114.451 85.7738 117.744 80.1315 118.761Z" fill="white"/>
<path d="M97.3831 104.043C98.4274 101.286 99.0099 98.2441 99.0099 95C99.0099 81.0939 88.3059 70.9061 76.416 70.9061C64.5261 70.9061 53.8221 81.0939 53.8221 95C53.8221 107.843 62.9522 117.515 73.7144 118.918C77.2886 125.07 82.2027 130.311 88.0547 134.191C84.3754 135.367 80.4669 136 76.416 136C54.6008 136 36.916 117.644 36.916 95C36.916 72.3563 54.6008 54 76.416 54C98.2312 54 115.916 72.3563 115.916 95C115.916 101.681 114.377 107.989 111.646 113.562C105.861 113.3 100.308 109.72 97.3831 104.043Z" fill="white"/>
</svg>
